X: 17768
T: Honesty Bar, The
R: jig
M: 6/8
K: Dmajor
dfe dAF|FEF DFA|dfe dAF|EFA ~B3|
dfe dAF|FEF DFA|Bcd BAF|AFE E2A|
dfe dAF|BAF EFA|dfe dAF|EFA ~B3|
def a2 a|afe edB|dfe dAF|EDB, D3||
M:9/8
~B3 dAF EFA|~B3 dAF EFD|~B3 dAF EFA|~B3 dAF E2 z|
~B3 dAF EFA|~B3 dAF EFD|~B3 dAF EFA|~B3 dBd efe||
d2 f ~a3 edB|d2 f a2 f efe|d2 f ~a3 edB|d2 f edB DFA|
d2 f ~a3 edB|d2 f a2 f efe|def edB AFE|DEF DEF ABc||

